src/assets/svg/blob.svg

<?xml version="1.0" encoding="UTF-8"?>
<svg viewBox="0 0 480 480" xmlns="http://www.w3.org/2000/svg">
<path d="m444 275q-23 35-25.5 80t-44 58-80 8-70-10.5-79 6-73.5-22.5-36-74 5-77 32-66.5 23.5-73.5 43-66 76.5 2 77.5 21.5 58.5 28 57.5 51 47 60.5-12.5 75z" fill="#005189"/>
</svg>

<svg id="10015.io" viewBox="0 0 480 480" xmlns="http://www.w3.org/2000/svg" xmlns:xlink="http://www.w3.org/1999/xlink" >
	<path fill="#005189" d="M444,275Q421,310,418.5,355Q416,400,374.5,413Q333,426,294.5,421Q256,416,224.5,410.5Q193,405,145.5,416.5Q98,428,72,394Q46,360,36,320Q26,280,41,243Q56,206,73,176.5Q90,147,96.5,103Q103,59,139.5,37Q176,15,216,39Q256,63,293.5,60.5Q331,58,352,88.5Q373,119,409.5,139.5Q446,160,456.5,200Q467,240,444,275Z" />
</svg>
